X:52
T:Bonnie Dundee
C:arr. Carlo Minasi
M:6/8
L:1/8
B:Chappell's One Hundred Scotch Melodies
B:Arranged for the Concertina by Carlo Minasi
Q:"Allegro  "3/8=95
Z:Peter Dunk 2012
K:G
!mf![B/G/][c/A/]|([dB]>[ec][dB]) ([dB]>[ec][dB])|\
([ge][fd][ec] [d2B2]) (d/c/)|BdD BdD|\
[AFD]>[AFD][AFD] [A2F2D2] ([B/G/][c/A/])|
%
([dB]>[ec][dB]) ([dB]>[ec][dB])|([ge][fd][ec] [d2B2]) (d/c/)|\
BdD BdD|[GDB,]<[GDB,][GEC] [G2D2B,2]||
%
!f!D|L[GB,][GB,][GB,] [GB,][AD][BG]|\
[AD]LDLD LD2 D|L[AD][AD][AD] ([AD][BG][cA])|\
([cA][BG]).[BG] .[B2G2] G|
%
[BG]>BB [cF]>Bc|[d=F]>cd [e2c2G2C2] (d/c/)|\
BdD Ad>D|[GDB,]<[GDB,][GEC] [G2D2B,2]||

